Adwaita++/actions/22/format-justify-right.svg

<svg height="22" viewBox="0 0 22 22" width="22" xmlns="http://www.w3.org/2000/svg">
  <path d="m1 1v2h14v-2zm6 4.0039062v2h8v-2zm0 4v1.9999998h8v-1.9999998zm-6 3.9960938v2h14v-2z" fill="#444" transform="translate(3 3)"/>
</svg>

<svg xmlns="http://www.w3.org/2000/svg" width="22" height="22" viewBox="0 0 22 22">
 <defs>
  <style id="current-color-scheme" type="text/css">
   .ColorScheme-Text { color:#444444; } .ColorScheme-Highlight { color:#4285f4; }
  </style>
 </defs>
 <path style="fill:currentColor" class="ColorScheme-Text" d="M 1 1 L 1 3 L 15 3 L 15 1 L 1 1 z M 7 5.0039062 L 7 7.0039062 L 15 7.0039062 L 15 5.0039062 L 7 5.0039062 z M 7 9.0039062 L 7 11.003906 L 15 11.003906 L 15 9.0039062 L 7 9.0039062 z M 1 13 L 1 15 L 15 15 L 15 13 L 1 13 z" transform="translate(3 3)"/>
</svg>
